X:3342
T:Connemara Stocking, The
T:Galway Reel, The
T:Winter Apples
R:reel
D:Chieftains 1.
Z:id:hn-reel-139
M:C|
K:G
g2fg edBA|GABG AGED|GABd eaag|1 fdef gbaf:|2 fdef gdef||
gbef gbe2|fade fad2|gbef gfed|Bded Bded|
ebba b2ag|faab ~a3f|gbag fagf|edef gdef||


